icons/tv-alt.svg

<svg width="24" height="24" viewBox="0 0 24 24" fill="none" xmlns="http://www.w3.org/2000/svg">
<path fill-rule="evenodd" clip-rule="evenodd" d="M8.66962 2.96967C8.96252 2.67678 9.43739 2.67678 9.73028 2.96967L11.8499 5.08936L13.9696 2.96967C14.2625 2.67678 14.7374 2.67678 15.0303 2.96967C15.3232 3.26256 15.3232 3.73743 15.0303 4.03033L13.3106 5.75H17C19.6142 5.75 21.75 7.88579 21.75 10.5V16.5C21.75 19.1142 19.6142 21.25 17 21.25H7C4.27354 21.25 2.25 19.1019 2.25 16.5V10.5C2.25 7.88579 4.38579 5.75 7 5.75H10.3893L8.66962 4.03033C8.37673 3.73743 8.37673 3.26256 8.66962 2.96967ZM7 7.25C5.21421 7.25 3.75 8.71421 3.75 10.5V16.5C3.75 18.2981 5.12646 19.75 7 19.75H14.75V7.25H7ZM16.25 7.25V19.75H17C18.7858 19.75 20.25 18.2858 20.25 16.5V10.5C20.25 8.71421 18.7858 7.25 17 7.25H16.25Z" fill="black"/>
</svg>

<svg xmlns="http://www.w3.org/2000/svg" fill="none" viewBox="0 0 24 24">
  <path fill="#000" fill-rule="evenodd" d="M8.67 2.97a.75.75 0 0 1 1.06 0l2.12 2.12 2.12-2.12a.75.75 0 0 1 1.06 1.06l-1.72 1.72H17a4.762 4.762 0 0 1 4.75 4.75v6A4.762 4.762 0 0 1 17 21.25H7c-2.726 0-4.75-2.148-4.75-4.75v-6A4.762 4.762 0 0 1 7 5.75h3.39L8.67 4.03a.75.75 0 0 1 0-1.06ZM7 7.25a3.262 3.262 0 0 0-3.25 3.25v6c0 1.798 1.376 3.25 3.25 3.25h7.75V7.25H7Zm9.25 0v12.5H17a3.262 3.262 0 0 0 3.25-3.25v-6A3.262 3.262 0 0 0 17 7.25h-.75Z" clip-rule="evenodd"/>
</svg>
